icons/ammo/ballistic_ammo.svg

<svg xmlns="http://www.w3.org/2000/svg" xmlns:xlink="http://www.w3.org/1999/xlink" width="128pt" height="129pt" viewBox="0 0 128 129" version="1.1">
<g id="surface1">
<path d="M 101.503906 36.1875 C 67.167969 37.183594 44.875 37.183594 34.617188 36.1875 C 29.203125 35.757812 21.796875 32.625 12.394531 26.785156 C 7.691406 23.933594 3.5625 21.15625 0 18.449219 L 11.753906 10.542969 C 21.011719 4.988281 28.632812 1.78125 34.617188 0.929688 L 73.9375 0.0742188 L 101.503906 0.714844 L 101.503906 36.1875 M 128 0.714844 L 128 36.1875 L 109.835938 36.1875 L 109.835938 0.714844 L 128 0.714844 M 101.503906 46.445312 L 101.503906 81.914062 C 67.167969 82.914062 44.875 82.914062 34.617188 81.914062 C 29.203125 81.34375 21.796875 78.210938 12.394531 72.511719 L 0 64.179688 L 11.753906 56.058594 C 21.011719 50.644531 28.632812 47.511719 34.617188 46.65625 C 41.171875 45.800781 54.277344 45.515625 73.9375 45.800781 L 101.503906 46.445312 M 128 46.445312 L 128 81.914062 L 109.835938 81.914062 L 109.835938 46.445312 L 128 46.445312 M 128 92.171875 L 128 127.644531 L 109.835938 127.644531 L 109.835938 92.171875 L 128 92.171875 M 101.503906 127.644531 C 67.167969 128.5 44.875 128.5 34.617188 127.644531 C 29.203125 127.074219 21.796875 123.941406 12.394531 118.242188 L 0 109.695312 C 3.417969 107.128906 7.335938 104.496094 11.753906 101.789062 C 21.011719 96.375 28.632812 93.242188 34.617188 92.386719 C 41.171875 91.53125 54.277344 91.246094 73.9375 91.53125 L 101.503906 92.171875 L 101.503906 127.644531 "/>
</g>
</svg>

<svg xmlns="http://www.w3.org/2000/svg" width="128pt" height="172" viewBox="0 0 128 129"><path d="M101.504 36.188c-34.336.996-56.629.996-66.887 0q-8.12-.644-22.222-9.403C7.69 23.934 3.563 21.156 0 18.45l11.754-7.906C21.012 4.988 28.633 1.781 34.617.93l39.32-.856 27.567.64zM128 .715v35.473h-18.164V.715zm-26.496 45.73v35.47c-34.336 1-56.629 1-66.887 0q-8.12-.855-22.222-9.403L0 64.18l11.754-8.121q13.887-8.12 22.863-9.403 9.831-1.283 39.32-.855zm26.496 0v35.47h-18.164v-35.47zm0 45.727v35.473h-18.164V92.172zm-26.496 35.473c-34.336.855-56.629.855-66.887 0q-8.12-.855-22.222-9.403L0 109.695q5.127-3.847 11.754-7.906 13.887-8.12 22.863-9.402 9.831-1.283 39.32-.856l27.567.64z"/></svg>
